X: 37
T: Bonnie Dundee
R: jig
B: NEFR #37
B: RSCDS __-15
Z: 1997 by John Chambers <jc:trillian.mit.edu>
M: 6/8
L: 1/8
K: G
|:\
"G"ded dBd | "C"gfe "D7"d2c | "G"BdD BdD | "D7"ABA ABc |\
"G"ded dBd | "C"gfe "D7"d2c | "G"BdD "D7"AdF | "G"GAG G3 :|
|:\
"G"GGG GcB | "D7"ADD D3 | AAA ABc | "G"cBA B2G |\
"G"BAB "C"cBc | "G"dcd "C"edc | "G"BdD "D7"AdF | "G"GAG G3 :|
